X: 27
T: THE TIPSY PARSON
S: "Community Dances Manual 6", EFDSS, Jack Hamilton ed., 1981 p.11
N: Known as "Liberty" in the US.
R: reel
Z: 2010 John Chambers <jc:trillian.mit.edu>
M: 4/4
L: 1/8
K: D
"A"|: e2 |\
"D"f2A2 f2A2 | "D"fgfe d^def | "Em"g2B2 g2B2 | "A7"gagf e^de=f |
"D"^f2A2 f2A2 | "D"fgfe d2cd | "A7"efed cABc | "D"dfec d2 :|
"B"|: FG |\
"D"A2AB AGFE | "D"DFAd fdAF | "D"A2AB AGFD | "A7"[E3A,3][EA,] [E2A,2]FG |
"D"A2AB AGFE | "D"DFAd f2ef | "Em"gfed "A7"cABc | "D"dfec d2 :|

%%sep 2 1 500
%%sep 1 1 500

